X:1

T:White’s Snowden

M:2/4

L:1/8

S:Joshua Gibbons ms. (1823-26)

K:G

d|g2 dB|G2 AB|cE AG|GF ED|g2 dB|G2 AB|cA GF G3:|2g3z||

|:BA Ac|Bc dB|A2 Bc|G2g2|A2 Bc|de fg|fe d^c|d2 ef|

g2dB|G2 AB|cE AG|GF ED|g2 dB|G2 AB|cA GF|1 (G2G2):|2 G2||

 

WHITE STAR CLOG. American, Clog. D Major. Standard tuning. AABB. White’s Unique Collection, 1896; No. 146, pg. 26.

